X: 1
T: Reel de Joliette
M: 4/4
L: 1/8
R: reel
K: Cmaj
cd |: eedc eedc | eedc Accd | eedc eedc |[1 ecdB cccd :|[2 ecdB ccce ||
|: geae gecd | ecec Adef | geae gecd |[1 ecdB c2ce :|[2 ecdB c2cd |]
